rospo-light/32x32/apps/gcstar.svg

<?xml version="1.0" encoding="UTF-8" standalone="no"?>
<svg xmlns="http://www.w3.org/2000/svg" height="32" width="32" version="1">
 <rect ry="14" rx="14" transform="matrix(0,-1,-1,0,0,0)" height="28" width="28" y="-30" x="-30" fill="#1d81e8"/>
 <path opacity=".2" d="m16 7a10 10 0 0 0 -10 10 10 10 0 0 0 10 10 10 10 0 0 0 10 -10 10 10 0 0 0 -10 -10zm-4.7773 7a3.0266 2.4673 76.77 0 1 2.6582 2.3457 3.0266 2.4673 76.77 0 1 -1.6152 3.582 3.0266 2.4673 76.77 0 1 -3.1469 -2.274 3.0266 2.4673 76.77 0 1 1.6149 -3.582 3.0266 2.4673 76.77 0 1 0.489 -0.072zm9.5547 0a2.4673 3.0266 13.23 0 1 0.48828 0.07227 2.4673 3.0266 13.23 0 1 1.6152 3.582 2.4673 3.0266 13.23 0 1 -3.1465 2.2734 2.4673 3.0266 13.23 0 1 -1.616 -3.582 2.4673 3.0266 13.23 0 1 2.658 -2.346z"/>
 <path fill="#ffc05b" d="m16 6a10 10 0 0 0 -10 10 10 10 0 0 0 10 10 10 10 0 0 0 10 -10 10 10 0 0 0 -10 -10zm-4.777 7a3.0266 2.4673 76.77 0 1 2.658 2.346 3.0266 2.4673 76.77 0 1 -1.615 3.582 3.0266 2.4673 76.77 0 1 -3.1469 -2.274 3.0266 2.4673 76.77 0 1 1.6149 -3.582 3.0266 2.4673 76.77 0 1 0.489 -0.072zm9.554 0a2.4673 3.0266 13.23 0 1 0.489 0.072 2.4673 3.0266 13.23 0 1 1.615 3.582 2.4673 3.0266 13.23 0 1 -3.147 2.274 2.4673 3.0266 13.23 0 1 -1.615 -3.582 2.4673 3.0266 13.23 0 1 2.658 -2.346z"/>
 <path opacity=".2" fill="#fff" d="m16 2c-7.756 0-14 6.244-14 14 0 0.169 0.0195 0.333 0.0254 0.5 0.2637-7.5206 6.3874-13.5 13.975-13.5 7.587 0 13.711 5.9794 13.975 13.5 0.005-0.167 0.025-0.331 0.025-0.5 0-7.756-6.244-14-14-14z"/>
 <path opacity=".2" d="m2.0254 16.5c-0.0059 0.167-0.0254 0.331-0.0254 0.5 0 7.756 6.244 14 14 14s14-6.244 14-14c0-0.16884-0.01952-0.33264-0.02539-0.5-0.264 7.521-6.388 13.5-13.975 13.5-7.5872 0-13.711-5.979-13.975-13.5z"/>
</svg>

<?xml version="1.0" encoding="UTF-8" standalone="no"?>
<svg
   xmlns:dc="http://purl.org/dc/elements/1.1/"
   xmlns:cc="http://creativecommons.org/ns#"
   xmlns:rdf="http://www.w3.org/1999/02/22-rdf-syntax-ns#"
   xmlns:svg="http://www.w3.org/2000/svg"
   xmlns="http://www.w3.org/2000/svg"
   xmlns:sodipodi="http://sodipodi.sourceforge.net/DTD/sodipodi-0.dtd"
   xmlns:inkscape="http://www.inkscape.org/namespaces/inkscape"
   height="32"
   width="32"
   version="1"
   id="svg12"
   sodipodi:docname="gcstar.svg"
   inkscape:version="0.92.1 r">
  <metadata
     id="metadata18">
    <rdf:RDF>
      <cc:Work
         rdf:about="">
        <dc:format>image/svg+xml</dc:format>
        <dc:type
           rdf:resource="http://purl.org/dc/dcmitype/StillImage" />
      </cc:Work>
    </rdf:RDF>
  </metadata>
  <defs
     id="defs16" />
  <sodipodi:namedview
     pagecolor="#ffffff"
     bordercolor="#666666"
     borderopacity="1"
     objecttolerance="10"
     gridtolerance="10"
     guidetolerance="10"
     inkscape:pageopacity="0"
     inkscape:pageshadow="2"
     inkscape:window-width="640"
     inkscape:window-height="480"
     id="namedview14"
     showgrid="false"
     inkscape:zoom="8.9375"
     inkscape:cx="-5.2587413"
     inkscape:cy="16"
     inkscape:current-layer="svg12" />
  <rect
     style="opacity:1;fill:#1d81e8;fill-opacity:1;fill-rule:evenodd;stroke:none;stroke-width:1.03534329;stroke-linecap:round;stroke-linejoin:bevel;stroke-miterlimit:4;stroke-dasharray:none;stroke-dashoffset:0;stroke-opacity:1"
     id="rect4497-3-3"
     width="28.203388"
     height="28.203388"
     x="1.8983059"
     y="1.8983059"
     ry="5.575182" />
  <path
     d="M 16,5.9999999 A 10,10 0 0 0 6,16 10,10 0 0 0 16,26 10,10 0 0 0 26,16 10,10 0 0 0 16,5.9999999 Z M 11.223,13 a 3.0266,2.4673 76.77 0 1 2.658,2.346 3.0266,2.4673 76.77 0 1 -1.615,3.582 A 3.0266,2.4673 76.77 0 1 9.1191,16.654 3.0266,2.4673 76.77 0 1 10.734,13.072 3.0266,2.4673 76.77 0 1 11.223,13 Z m 9.554,0 a 2.4673,3.0266 13.23 0 1 0.489,0.072 2.4673,3.0266 13.23 0 1 1.615,3.582 2.4673,3.0266 13.23 0 1 -3.147,2.274 A 2.4673,3.0266 13.23 0 1 18.119,15.346 2.4673,3.0266 13.23 0 1 20.777,13 Z"
     id="path6"
     inkscape:connector-curvature="0"
     style="fill:#ffc05b" />
</svg>
